components/Company/logos/logo-pindrop.svg

<svg height="140" viewBox="0 0 400 140" width="400" xmlns="http://www.w3.org/2000/svg"><g fill="#f15a2b" transform="translate(24 29)"><path d="m42.9469027 19.7315387c13.7026548 0 26.9159292 5.0265551 37.0530973 14.2419062-1.5380531-7.4002062-5.1734513-14.2419062-10.4867257-19.6175277-24.818584-10.47198986-53.6221239-1.5358918-68.09380527 21.1534195-.20973452 1.1868255-.34955753 2.3038378-.41946903 3.4906633 10.4867257-12.2173215 25.7973451-19.2684613 41.9469027-19.2684613"/><path d="m19.4982394 43.8251196c19.6109155 0 37.5528169 10.8841836 46.5237676 28.1748804 7.7887324-6.4065131 12.7957747-15.4996286 13.977993-25.4193909-18.4286972-21.9061417-51.3221831-24.8682929-73.43661972-6.6131748-2.01672535 1.6532937-3.82482394 3.4443619-5.56338028 5.3043173.06954225.6199851.13908451 1.2399703.20862676 1.7910682 5.8415493-2.1355044 12.03080984-3.2377002 18.28961264-3.2377002"/><path d="m41.5353794 83c-20.7323103 0-38.28047744-15.3543176-41.18158571-35.8739127-.07075874-.636815-.14151747-1.27363-.21227621-1.910445-.07075874-1.2028728-.14151748-2.4765029-.14151748-3.6793757 0-1.0613583.07075874-2.1227167.14151748-3.1840751.07075874-1.2028728.21227621-2.4057456.42455243-3.6086184 3.82097186-22.713069 25.19011079-37.92587217 47.83290709-34.17573928 16.9113384 2.83028896 30.28474 15.70810378 33.7519181 32.47756588.5660699 2.7595318.8491049 5.5898207.8491049 8.4201097 0 1.6981734-.0707587 3.3963468-.283035 5.0237629-2.5473145 20.8733812-20.2369991 36.5107277-41.1815856 36.5107277m0-80.87577541c-19.3171356-.07048907-35.73316286 13.86868411-38.84654735 32.90237741-.21227621 1.1321156-.35379369 2.3349884-.42455243 3.467104-.07075873.9906011-.14151747 1.9812023-.14151747 3.0425606 0 1.1321156.07075874 2.3349884.14151747 3.5378612.07075874.6368151.14151748 1.2028728.21227622 1.7689306 2.97186701 21.5101962 22.78431376 36.5814849 44.36572886 33.6804388 17.6896846-2.4057457 31.5583973-16.4864333 33.7519182-34.1757393.2122762-1.6274162.283035-3.1840751.283035-4.8114913 0-10.1890403-3.9624894-20.0242944-11.0383632-27.3830457-7.4296675-7.71253748-17.6896846-12.02899631-28.3034953-12.02899631"/><path d="m229 7v52.5033467h-5.249428l.283753-4.7536814-.141876-.0709504c-1.631579 3.5475234-5.533181 5.3212851-11.56293 5.3212851-5.53318 0-9.292906-1.3480589-11.279176-4.1151272-1.98627-2.7670682-3.050343-7.875502-3.050343-15.3962516 0-6.8821955.993135-11.7068274 3.050343-14.3319947s5.675057-4.0441767 10.924485-4.0441767c6.526316 0 10.427918 1.7028112 11.704806 5.1793842l.141876-.0709505v-20.2208835zm-15.89016 19.6532798c-3.901602 0-6.455378.9223561-7.732266 2.7670683-1.276888 1.8447121-1.915331 5.5341365-1.915331 11.1392235 0 6.1726908.638443 10.2168675 1.915331 12.1325301 1.276888 1.9156627 3.901602 2.9089693 7.874142 2.9089693 4.327231 0 7.16476-.9933066 8.441648-2.9089693 1.276888-1.9156626 1.98627-6.1726907 1.98627-12.6291834 0-5.2503346-.709382-8.7978581-2.128147-10.6425702-1.489702-1.9156627-4.256292-2.7670683-8.441647-2.7670683"/><path d="m239 23.7693762h5.240793l-.495751 4.1965973.070822.1398866c2.053824-3.4272212 5.524079-5.1058601 10.269122-5.1058601 6.586402 0 9.915014 3.4272212 9.915014 10.2816635v2.5179584h-5.169972l.070822-.9092627c.070821-.9792061.141643-1.6086957.141643-1.9584121 0-3.7069944-1.983003-5.5954632-6.01983-5.5954632-5.878187 0-8.78187 3.6370511-8.78187 10.9810964v21.6824197h-5.240793z"/><path d="m283.5 23c6.504464 0 10.725446 1.1779026 12.59375 3.4644195 1.9375 2.2865168 2.90625 7.3445693 2.90625 15.0355805s-.96875 12.6797753-2.90625 15.0355805c-1.9375 2.2865169-6.158482 3.4644195-12.59375 3.4644195s-10.65625-1.1779026-12.59375-3.4644195c-1.9375-2.2865168-2.90625-7.3445693-2.90625-15.0355805s.96875-12.7490637 2.90625-15.0355805c1.9375-2.2865169 6.089286-3.4644195 12.59375-3.4644195m0 4.3651685c-4.566964 0-7.404018.7621723-8.441964 2.2865169-1.107143 1.5243446-1.660715 5.4737828-1.660715 11.8483146s.553572 10.32397 1.660715 11.8483146 3.944196 2.2865169 8.441964 2.2172285c4.566964 0 7.404018-.7621723 8.511161-2.2865169s1.660714-5.4737828 1.660714-11.8483146-.553571-10.32397-1.660714-11.8483146c-1.107143-1.4550562-3.944197-2.2172285-8.511161-2.2172285"/><path d="m308.141553 23.5676037h5.237442l-.283105 4.6117805.141553.1419009c1.840183-3.5475234 5.732877-5.3212851 11.819635-5.3212851 5.308219 0 8.988584 1.4190094 10.970319 4.1151272 1.981735 2.7670682 2.972603 7.875502 2.972603 15.3253012 0 6.8821954-.990868 11.7068273-3.043379 14.3319946-2.052511 2.6251674-5.6621 4.0441767-10.828767 4.0441767-5.874429 0-9.8379-1.6318607-11.748859-4.8955823h-.141552v20.0789826h-5.237443zm15.429223 3.9022758c-4.175799 0-6.936073.9223561-8.210045 2.7670683-1.273973 1.8447122-1.910959 5.8179384-1.910959 11.9906292 0 5.6760375.707762 9.4364123 2.052511 11.3520749 1.344749 1.9156627 4.175799 2.8380188 8.280822 2.8380188 3.96347 0 6.582192-.9223561 7.856164-2.6961178 1.273973-1.7737617 1.910959-5.5341366 1.910959-11.2811245 0-6.2436413-.636986-10.287818-1.840182-12.1325301-1.203197-1.8447122-3.892694-2.8380188-8.13927-2.8380188"/><path d="m107.141553 23.5676037h5.237442l-.283105 4.6117805.141553.1419009c1.840183-3.5475234 5.732877-5.3212851 11.748858-5.3212851 5.30822 0 8.988585 1.4190094 11.041096 4.1151272 1.981735 2.7670682 2.972603 7.875502 2.972603 15.3253012 0 6.8821954-.990868 11.7068273-3.043379 14.3319946-2.052511 2.6251674-5.6621 4.0441767-10.828767 4.0441767-5.874429 0-9.8379-1.6318607-11.748859-4.8955823h-.141552v20.0789826h-5.237443zm15.429223 3.9022758c-4.175799 0-6.936073.9223561-8.210045 2.7670683-1.273973 1.8447122-1.910959 5.8179384-1.910959 11.9906292 0 5.6760375.707762 9.4364123 2.052511 11.3520749 1.344749 1.9156627 4.175799 2.8380188 8.280822 2.8380188 3.96347 0 6.582192-.9223561 7.856164-2.6961178 1.273973-1.7737617 1.910959-5.605087 1.910959-11.2811245 0-6.2436413-.636986-10.287818-1.840182-12.1325301-1.203197-1.9156627-3.963471-2.8380188-8.13927-2.8380188"/><path d="m150 12.972973h-5v-5.972973h5zm0 46.027027h-5v-36.4h5z"/><path d="m160 23.5616698h5.058548l-.140515 4.914611.140515.1404175c1.615925-3.7210626 5.550351-5.6166983 11.873536-5.6166983 5.128806 0 8.571429.9127135 10.327869 2.7381404 1.75644 1.825427 2.669789 5.3358634 2.740047 10.5313093v23.6603416h-5.199063v-24.5730551c0-3.089184-.562061-5.1954459-1.756441-6.3187855-1.194379-1.053131-3.442622-1.6148008-6.74473-1.6148008-7.306792 0-10.960188 3.5104364-10.960188 10.601518v21.9753321h-5.339578z"/><path d="m341 15.5345912c0-3.0440252 2.421384-5.5345912 5.534591-5.5345912 3.113208 0 5.465409 2.490566 5.465409 5.4654088 0 2.9748428-2.421384 5.5345912-5.534591 5.5345912-3.113208 0-5.465409-2.490566-5.465409-5.4654088zm10.446541-.0691824c0-2.7672956-2.144654-4.9811321-4.91195-4.9811321-2.836478 0-4.981132 2.2138365-4.981132 4.9811321 0 2.6981132 2.144654 4.9119497 4.91195 4.9119497 2.836478.0691824 4.981132-2.1446541 4.981132-4.9119497zm-7.194969-3.0440252h2.559749c.761006 0 1.383648.2075472 1.72956.6226416.276729.2767295.484276.6918239.484276 1.245283 0 .899371-.553459 1.5220126-1.314465 1.7295597l1.522012 2.1446541h-1.314465l-1.383648-2.0062893h-1.1761v2.0754717h-1.106919zm2.559749 2.836478c.691824 0 1.1761-.3459119 1.1761-.899371 0-.5534592-.415094-.8993711-1.1761-.8993711h-1.45283v1.7987421z"/></g></svg>

<?xml version="1.0" encoding="UTF-8"?>
<svg width="400px" height="140px" viewBox="0 0 400 140" version="1.1" xmlns="http://www.w3.org/2000/svg" xmlns:xlink="http://www.w3.org/1999/xlink">
    <title>Artboard</title>
    <g id="Artboard" stroke="none" stroke-width="1" fill="none" fill-rule="evenodd">
        <g id="Pindrop" transform="translate(24.000000, 29.000000)" fill="#F15A2B" fill-rule="nonzero">
            <path d="M42.9469027,19.7315387 C56.6495575,19.7315387 69.8628319,24.7580938 80,33.9734449 C78.4619469,26.5732387 74.8265487,19.7315387 69.5132743,14.3559172 C44.6946903,3.88392734 15.8911504,12.8200254 1.41946903,35.5093367 C1.20973451,36.6961622 1.0699115,37.8131745 1,39 C11.4867257,26.7826785 26.7973451,19.7315387 42.9469027,19.7315387" id="Path"></path>
            <path d="M19.4982394,43.8251196 C39.1091549,43.8251196 57.0510563,54.7093032 66.022007,72 C73.8107394,65.5934869 78.8177817,56.5003714 80,46.5806091 C61.5713028,24.6744674 28.6778169,21.7123162 6.56338028,39.9674343 C4.54665493,41.620728 2.73855634,43.4117962 1,45.2717516 C1.06954225,45.8917367 1.13908451,46.5117219 1.20862676,47.0628198 C7.05017606,44.9273154 13.2394366,43.8251196 19.4982394,43.8251196" id="Path"></path>
            <path d="M41.5353794,83 C20.8030691,83 3.25490196,67.6456824 0.353793691,47.1260873 C0.283034953,46.4892723 0.212276215,45.8524573 0.141517477,45.2156423 C0.0707587383,44.0127695 0,42.7391394 0,41.5362666 C0,40.4749083 0.0707587383,39.4135499 0.141517477,38.3521915 C0.212276215,37.1493187 0.353793691,35.9464459 0.566069906,34.7435731 C4.38704177,12.0305041 25.7561807,-3.18229907 48.398977,0.567833817 C65.3103154,3.39812278 78.683717,16.2759376 82.1508951,33.0453997 C82.716965,35.8049315 83,38.6352204 83,41.4655094 C83,43.1636828 82.9292413,44.8618562 82.716965,46.4892723 C80.1696505,67.3626535 62.4799659,83 41.5353794,83 M41.5353794,2.12422459 C22.2182438,2.05373552 5.80221654,15.9929087 2.68883205,35.026602 C2.47655584,36.1587176 2.33503836,37.3615904 2.26427962,38.493706 C2.19352089,39.4843071 2.12276215,40.4749083 2.12276215,41.5362666 C2.12276215,42.6683822 2.19352089,43.871255 2.26427962,45.0741278 C2.33503836,45.7109429 2.4057971,46.2770006 2.47655584,46.8430584 C5.44842285,68.3532546 25.2608696,83.4245433 46.8422847,80.5234972 C64.5319693,78.1177515 78.400682,64.0370639 80.5942029,46.3477579 C80.8064791,44.7203417 80.8772379,43.1636828 80.8772379,41.5362666 C80.8772379,31.3472263 76.9147485,21.5119722 69.8388747,14.1532209 C62.4092072,6.44068342 52.1491901,2.12422459 41.5353794,2.12422459" id="Shape"></path>
            <path d="M229,7 L229,59.5033467 L223.750572,59.5033467 L224.034325,54.7496653 L223.892449,54.6787149 C222.26087,58.2262383 218.359268,60 212.329519,60 C206.796339,60 203.036613,58.6519411 201.050343,55.8848728 C199.064073,53.1178046 198,48.0093708 198,40.4886212 C198,33.6064257 198.993135,28.7817938 201.050343,26.1566265 C203.107551,23.5314592 206.7254,22.1124498 211.974828,22.1124498 C218.501144,22.1124498 222.402746,23.815261 223.679634,27.291834 L223.82151,27.2208835 L223.82151,7 L229,7 Z M213.10984,26.6532798 C209.208238,26.6532798 206.654462,27.5756359 205.377574,29.4203481 C204.100686,31.2650602 203.462243,34.9544846 203.462243,40.5595716 C203.462243,46.7322624 204.100686,50.7764391 205.377574,52.6921017 C206.654462,54.6077644 209.279176,55.601071 213.251716,55.601071 C217.578947,55.601071 220.416476,54.6077644 221.693364,52.6921017 C222.970252,50.7764391 223.679634,46.519411 223.679634,40.0629183 C223.679634,34.8125837 222.970252,31.2650602 221.551487,29.4203481 C220.061785,27.5046854 217.295195,26.6532798 213.10984,26.6532798" id="Shape"></path>
            <path d="M239,23.7693762 L244.240793,23.7693762 L243.745042,27.9659735 L243.815864,28.1058601 C245.869688,24.6786389 249.339943,23 254.084986,23 C260.671388,23 264,26.4272212 264,33.2816635 L264,35.7996219 L258.830028,35.7996219 L258.90085,34.8903592 C258.971671,33.9111531 259.042493,33.2816635 259.042493,32.9319471 C259.042493,29.2249527 257.05949,27.3364839 253.022663,27.3364839 C247.144476,27.3364839 244.240793,30.973535 244.240793,38.3175803 L244.240793,60 L239,60 L239,23.7693762 Z" id="Path"></path>
            <path d="M283.5,23 C290.004464,23 294.225446,24.1779026 296.09375,26.4644195 C298.03125,28.7509363 299,33.8089888 299,41.5 C299,49.1910112 298.03125,54.1797753 296.09375,56.5355805 C294.15625,58.8220974 289.935268,60 283.5,60 C277.064732,60 272.84375,58.8220974 270.90625,56.5355805 C268.96875,54.2490637 268,49.1910112 268,41.5 C268,33.8089888 268.96875,28.7509363 270.90625,26.4644195 C272.84375,24.1779026 276.995536,23 283.5,23 M283.5,27.3651685 C278.933036,27.3651685 276.095982,28.1273408 275.058036,29.6516854 C273.950893,31.17603 273.397321,35.1254682 273.397321,41.5 C273.397321,47.8745318 273.950893,51.82397 275.058036,53.3483146 C276.165179,54.8726592 279.002232,55.6348315 283.5,55.5655431 C288.066964,55.5655431 290.904018,54.8033708 292.011161,53.2790262 C293.118304,51.7546816 293.671875,47.8052434 293.671875,41.4307116 C293.671875,35.0561798 293.118304,31.1067416 292.011161,29.582397 C290.904018,28.1273408 288.066964,27.3651685 283.5,27.3651685" id="Shape"></path>
            <path d="M308.141553,23.5676037 L313.378995,23.5676037 L313.09589,28.1793842 L313.237443,28.3212851 C315.077626,24.7737617 318.97032,23 325.057078,23 C330.365297,23 334.045662,24.4190094 336.027397,27.1151272 C338.009132,29.8821954 339,34.9906292 339,42.4404284 C339,49.3226238 338.009132,54.1472557 335.956621,56.772423 C333.90411,59.3975904 330.294521,60.8165997 325.127854,60.8165997 C319.253425,60.8165997 315.289954,59.184739 313.378995,55.9210174 L313.237443,55.9210174 L313.237443,76 L308,76 L308.141553,23.5676037 L308.141553,23.5676037 Z M323.570776,27.4698795 C319.394977,27.4698795 316.634703,28.3922356 315.360731,30.2369478 C314.086758,32.08166 313.449772,36.0548862 313.449772,42.227577 C313.449772,47.9036145 314.157534,51.6639893 315.502283,53.5796519 C316.847032,55.4953146 319.678082,56.4176707 323.783105,56.4176707 C327.746575,56.4176707 330.365297,55.4953146 331.639269,53.7215529 C332.913242,51.9477912 333.550228,48.1874163 333.550228,42.4404284 C333.550228,36.1967871 332.913242,32.1526104 331.710046,30.3078983 C330.506849,28.4631861 327.817352,27.4698795 323.570776,27.4698795" id="Shape"></path>
            <path d="M107.141553,23.5676037 L112.378995,23.5676037 L112.09589,28.1793842 L112.237443,28.3212851 C114.077626,24.7737617 117.97032,23 123.986301,23 C129.294521,23 132.974886,24.4190094 135.027397,27.1151272 C137.009132,29.8821954 138,34.9906292 138,42.4404284 C138,49.3226238 137.009132,54.1472557 134.956621,56.772423 C132.90411,59.3975904 129.294521,60.8165997 124.127854,60.8165997 C118.253425,60.8165997 114.289954,59.184739 112.378995,55.9210174 L112.237443,55.9210174 L112.237443,76 L107,76 L107.141553,23.5676037 Z M122.570776,27.4698795 C118.394977,27.4698795 115.634703,28.3922356 114.360731,30.2369478 C113.086758,32.08166 112.449772,36.0548862 112.449772,42.227577 C112.449772,47.9036145 113.157534,51.6639893 114.502283,53.5796519 C115.847032,55.4953146 118.678082,56.4176707 122.783105,56.4176707 C126.746575,56.4176707 129.365297,55.4953146 130.639269,53.7215529 C131.913242,51.9477912 132.550228,48.1164659 132.550228,42.4404284 C132.550228,36.1967871 131.913242,32.1526104 130.710046,30.3078983 C129.506849,28.3922356 126.746575,27.4698795 122.570776,27.4698795" id="Shape"></path>
            <path d="M150,12.972973 L145,12.972973 L145,7 L150,7 L150,12.972973 Z M150,59 L145,59 L145,22.6 L150,22.6 L150,59 Z" id="Shape"></path>
            <path d="M160,23.5616698 L165.058548,23.5616698 L164.918033,28.4762808 L165.058548,28.6166983 C166.674473,24.8956357 170.608899,23 176.932084,23 C182.06089,23 185.503513,23.9127135 187.259953,25.7381404 C189.016393,27.5635674 189.929742,31.0740038 190,36.2694497 L190,59.9297913 L184.800937,59.9297913 L184.800937,35.3567362 C184.800937,32.2675522 184.238876,30.1612903 183.044496,29.0379507 C181.850117,27.9848197 179.601874,27.4231499 176.299766,27.4231499 C168.992974,27.4231499 165.339578,30.9335863 165.339578,38.0246679 L165.339578,60 L160,60 L160,23.5616698 Z" id="Path"></path>
            <path d="M341,15.5345912 L341,15.5345912 C341,12.490566 343.421384,10 346.534591,10 C349.647799,10 352,12.490566 352,15.4654088 L352,15.4654088 C352,18.4402516 349.578616,21 346.465409,21 C343.352201,21 341,18.509434 341,15.5345912 Z M351.446541,15.4654088 L351.446541,15.4654088 C351.446541,12.6981132 349.301887,10.4842767 346.534591,10.4842767 C343.698113,10.4842767 341.553459,12.6981132 341.553459,15.4654088 L341.553459,15.4654088 C341.553459,18.163522 343.698113,20.3773585 346.465409,20.3773585 C349.301887,20.4465409 351.446541,18.2327044 351.446541,15.4654088 Z M344.251572,12.4213836 L346.811321,12.4213836 C347.572327,12.4213836 348.194969,12.6289308 348.540881,13.0440252 C348.81761,13.3207547 349.025157,13.7358491 349.025157,14.2893082 L349.025157,14.2893082 C349.025157,15.1886792 348.471698,15.8113208 347.710692,16.0188679 L349.232704,18.163522 L347.918239,18.163522 L346.534591,16.1572327 L345.358491,16.1572327 L345.358491,18.2327044 L344.251572,18.2327044 L344.251572,12.4213836 Z M346.811321,15.2578616 C347.503145,15.2578616 347.987421,14.9119497 347.987421,14.3584906 L347.987421,14.3584906 C347.987421,13.8050314 347.572327,13.4591195 346.811321,13.4591195 L345.358491,13.4591195 L345.358491,15.2578616 L346.811321,15.2578616 Z" id="Shape"></path>
        </g>
    </g>
</svg>
